X: 129
T: Staten Island
Z: Mary Lou Knacks
B: NEFR #129
M: C|
R: reel
K: D
A2 \
| "D"FD FG A2 A2 | df ed "D7"dc BA | "G"B2 GB "D"A2 FA | "A"G2 E2 E2 AG |
| "D"FD FG A2 A2 | df ed "D7"dc BA | "D"d2 d2 "A"ef ge | "D"f2 d2 d2 :|
|: fg \
| "D"a2 fa "A"g2 eg | "D"f2 df "A"ec BA | "C"=c2 c2 ef ge | =c2 c2 ef ge |
| "D"a2 fa "A"g2 eg | "D"f2 df "A"ec BA | "D"d2 d2 "A"ef ge | "D"f2 d2 d2 :|
